dist/svgs/crypto-icons/icons/job.svg

<svg width="462" height="511" xmlns="http://www.w3.org/2000/svg"><g fill="#000" fill-rule="nonzero"><path d="M230.617872,503.956879 C227.113759,500.452766 245.542128,334.12539 136.860142,225.534184 C83.2817021,172.010213 9.49560284,130.687092 9.14836915,131.286241 C8.80567376,131.88539 47.6595745,151.729929 216.982695,247.956879 C225.487568,252.76967 235.893425,252.76967 244.398298,247.956879 C413.648794,151.729929 452.448227,131.758298 452.159345,131.286241 C451.867234,130.814184 378.026667,172.010213 324.448227,225.534184 C215.693617,334.12539 234.121986,500.452766 230.617872,503.956879 Z"/><path d="M230.636135,0.0041019373 L0,127.474126 L0,382.819208 L230.636135,510.289231 L461.253901,382.819082 L461.253901,127.474251 L230.636135,0.0041019373 Z M10.893617,133.900059 L230.635922,12.4509335 L450.360284,133.899934 L450.360284,376.3934 L230.635922,497.8424 L10.893617,376.393274 L10.893617,133.900059 Z"/><ellipse cx="230.6" cy="183.6" rx="27.4" ry="26.7"/></g></svg>

<svg xmlns="http://www.w3.org/2000/svg" viewBox="0 0 462 511"><path d="M230.618 503.957c-3.504-3.504 14.924-169.832-93.758-278.423C83.282 172.01 9.496 130.687 9.148 131.286c-.342.6 38.512 20.444 207.835 116.67a27.833 27.833 0 0027.415 0c169.25-96.226 208.05-116.198 207.761-116.67-.292-.472-74.132 40.724-127.71 94.248-108.755 108.591-90.327 274.919-93.831 278.423z"/><path d="M230.636.004L0 127.474V382.82l230.636 127.47 230.618-127.47V127.474L230.636.004zM10.894 133.9L230.636 12.45 450.36 133.9v242.493l-219.724 121.45-219.742-121.45V133.9z"/><ellipse cx="230.6" cy="183.6" rx="27.4" ry="26.7"/></svg>
